app/dist/common/images/al-kathiri-co.svg

<svg height="18" viewBox="0 0 18 18" width="18" xmlns="http://www.w3.org/2000/svg"><path d="m0 0h18v18h-18z" fill="#f0f3fa"/><path d="m5.63 9h-2.63l.94-1h1.58l.66-.54.63.54h.19v-1.42h-.58l-1.72-1.58h1.26l1.04 1h1v3h-1.27l-.55-.52z" fill="#aeafb1"/><path d="m6.42 6.58.58.52v-.52zm.32 2.42-.57-.54-.56.54z" fill="#5b5959"/><path d="m9 5.63v-2.63l1 .94v1.58l.54.66-.54.63v.19h1.42v-.58l1.58-1.74v1.26l-1 1.06v1h-3v-1.27l.52-.55z" fill="#aeafb1"/><path d="m11.42 6.42-.52.58h.52zm-2.42.32.54-.57-.54-.56z" fill="#5b5959"/><path d="m12.37 9h2.63l-.94 1h-1.58l-.66.54-.63-.54h-.19v1.42h.58l1.75 1.58h-1.26l-1.07-1h-1v-3h1.27l.55.52z" fill="#aeafb1"/><path d="m11.58 11.42-.58-.52v.52zm-.32-2.42.57.54.56-.54z" fill="#5b5959"/><path d="m9 12.37v2.63l-1-.94v-1.58l-.54-.66.54-.63v-.19h-1.42v.58l-1.58 1.7v-1.28l1-1v-1h3v1.27l-.52.55z" fill="#aeafb1"/><path d="m6.58 11.58.52-.58h-.52zm2.42-.32-.54.57.54.56z" fill="#5b5959"/></svg>

<!-- by TradingView --><svg width="18" height="18" viewBox="0 0 18 18" xmlns="http://www.w3.org/2000/svg"><path fill="#F0F3FA" d="M0 0h18v18H0z"/><path d="M5.63 9H3l.94-1h1.58l.66-.54.63.54H7V6.58h-.58L4.7 5h1.26L7 6h1v3H6.73l-.55-.52-.55.52Z" fill="#AEAFB1"/><path d="M6.42 6.58 7 7.1v-.52h-.58ZM6.74 9l-.57-.54-.56.54h1.13Z" fill="#5B5959"/><path d="M9 5.63V3l1 .94v1.58l.54.66-.54.63V7h1.42v-.58L13 4.68v1.26L12 7v1H9V6.73l.52-.55L9 5.63Z" fill="#AEAFB1"/><path d="M11.42 6.42 10.9 7h.52v-.58ZM9 6.74l.54-.57L9 5.61v1.13Z" fill="#5B5959"/><path d="M12.37 9H15l-.94 1h-1.58l-.66.54-.63-.54H11v1.42h.58L13.33 13h-1.26L11 12h-1V9h1.27l.55.52.55-.52Z" fill="#AEAFB1"/><path d="M11.58 11.42 11 10.9v.52h.58ZM11.26 9l.57.54.56-.54h-1.13Z" fill="#5B5959"/><path d="M9 12.37V15l-1-.94v-1.58l-.54-.66.54-.63V11H6.58v.58L5 13.28V12l1-1v-1h3v1.27l-.52.55.52.55Z" fill="#AEAFB1"/><path d="M6.58 11.58 7.1 11h-.52v.58ZM9 11.26l-.54.57.54.56v-1.13Z" fill="#5B5959"/></svg>
